X: 358
T: A Smile In The Dark
R: jig
M: 6/8
K: Gmajor
|:DGB cAG|EFG Ace|ded cAA|GAG FED|
DGB cAG|EFG Ace|ded cAG|AGF G3:|
|:Bde geg|fdB cde|fdB a2g|ged ~e3|
gfe dcB|AGG GEF|GAA AGF|G3 G3:|

